X:1
T: The Earl of Elgin's Favourite
C:Nathaniel Gow
R:Strathspey
Q: 128
K:E
M:4/4
L:1/16
|:B,2|EFG2 B,2B,2 C2DE B,3E|C2F2 F2E2 D3E F2GA|B2G2 E2B,2 C2DE B,2E2|C2FF GEFD E2E2 E2B,2|
EFG2 B,2B,2 C2DE B,3E|C2F2 F2E2 D3E F2GA|B2G2 E2B,2 C2DE B,2E2|C2FF GEFD E2E2 E2B2|
e3f g2g2 f2f2 e4|c2f2 f2e2 d3e f2a2|gfga b2b2 f2f2 g4|c2af gefd e4 E2G2|
A2f2 F3A G2e2 E3G|A2C2 F3E D4 C3B,|B2B2 c2d2 e3c B2G2|E2E2 A2G2 G2F2 E2:|
